findly-builder/apps/searchassist/src/assets/images/logos/findly_logo.svg

<svg width="152" height="30" viewBox="0 0 152 30" fill="none" xmlns="http://www.w3.org/2000/svg">
<path d="M39.454 4.5625H41.4824C41.4426 2.59659 39.7665 1.20455 37.2892 1.20455C34.8461 1.20455 33.0108 2.57955 33.0165 4.63636C33.0165 6.30682 34.204 7.26705 36.1188 7.76136L37.4426 8.10227C38.6983 8.42045 39.5279 8.8125 39.5336 9.71591C39.5279 10.7102 38.5847 11.375 37.2097 11.375C35.8915 11.375 34.8688 10.7841 34.7836 9.5625H32.7097C32.7949 11.875 34.5165 13.1761 37.2267 13.1761C40.0165 13.1761 41.6358 11.7841 41.6415 9.73295C41.6358 7.71591 39.9711 6.79545 38.2211 6.38068L37.1301 6.10795C36.1756 5.88068 35.1415 5.47727 35.1529 4.50568C35.1586 3.63068 35.9426 2.98864 37.2608 2.98864C38.5165 2.98864 39.3461 3.57386 39.454 4.5625ZM47.2935 13.1705C49.3276 13.1705 50.7253 12.1761 51.089 10.6591L49.1685 10.4432C48.8901 11.1818 48.2083 11.5682 47.3219 11.5682C45.9924 11.5682 45.1117 10.6932 45.0946 9.19886H51.1742V8.56818C51.1742 5.50568 49.3333 4.15909 47.1855 4.15909C44.6855 4.15909 43.0549 5.99432 43.0549 8.6875C43.0549 11.4261 44.6628 13.1705 47.2935 13.1705ZM45.1003 7.8125C45.1628 6.69886 45.9867 5.76136 47.214 5.76136C48.3958 5.76136 49.1912 6.625 49.2026 7.8125H45.1003ZM55.4256 13.1761C56.7949 13.1761 57.6131 12.5341 57.9881 11.8011H58.0563V13H60.0336V7.15909C60.0336 4.85227 58.1529 4.15909 56.4881 4.15909C54.6529 4.15909 53.2438 4.97727 52.7892 6.56818L54.7097 6.84091C54.9142 6.24432 55.4938 5.73295 56.4995 5.73295C57.454 5.73295 57.9767 6.22159 57.9767 7.07955V7.11364C57.9767 7.70455 57.3574 7.73295 55.8176 7.89773C54.1245 8.07955 52.5051 8.58523 52.5051 10.5511C52.5051 12.267 53.7608 13.1761 55.4256 13.1761ZM55.9597 11.6648C55.1017 11.6648 54.4881 11.2727 54.4881 10.517C54.4881 9.72727 55.1756 9.39773 56.0961 9.26705C56.6358 9.19318 57.7154 9.05682 57.9824 8.84091V9.86932C57.9824 10.8409 57.1983 11.6648 55.9597 11.6648ZM62.1017 13H64.1586V7.86932C64.1586 6.76136 64.9938 5.97727 66.1245 5.97727C66.4711 5.97727 66.9029 6.03977 67.079 6.09659V4.20455C66.8915 4.17045 66.5676 4.14773 66.3404 4.14773C65.3404 4.14773 64.5051 4.71591 64.187 5.72727H64.0961V4.27273H62.1017V13ZM71.8929 13.1705C74.0861 13.1705 75.4838 11.8693 75.6316 10.017H73.6657C73.4895 10.9545 72.8134 11.4943 71.91 11.4943C70.6259 11.4943 69.7963 10.4205 69.7963 8.63636C69.7963 6.875 70.6429 5.81818 71.91 5.81818C72.8986 5.81818 73.5066 6.45455 73.6657 7.29545H75.6316C75.4895 5.40341 74.0123 4.15909 71.8816 4.15909C69.3248 4.15909 67.7111 6.00568 67.7111 8.67045C67.7111 11.3125 69.285 13.1705 71.8929 13.1705ZM79.3773 7.88636C79.3773 6.625 80.1614 5.89773 81.2637 5.89773C82.3432 5.89773 82.9796 6.58523 82.9796 7.76136V13H85.0364V7.44318C85.0364 5.33523 83.8432 4.15909 82.0307 4.15909C80.6898 4.15909 79.8375 4.76705 79.4341 5.75568H79.3319V1.36364H77.3205V13H79.3773V7.88636ZM88.7182 13L89.6784 10.1307H94.0534L95.0194 13H97.2694L93.1671 1.36364H90.5648L86.4682 13H88.7182ZM90.2466 8.4375L91.8205 3.75H91.9114L93.4853 8.4375H90.2466ZM105.468 6.57955C105.184 5.10227 104.002 4.15909 101.957 4.15909C99.8546 4.15909 98.4228 5.19318 98.4284 6.80682C98.4228 8.07955 99.2069 8.92045 100.883 9.26705L102.372 9.57955C103.173 9.75568 103.548 10.0795 103.548 10.5739C103.548 11.1705 102.9 11.6193 101.923 11.6193C100.98 11.6193 100.366 11.2102 100.19 10.4261L98.1841 10.6193C98.4398 12.2216 99.7864 13.1705 101.928 13.1705C104.11 13.1705 105.65 12.0398 105.656 10.3864C105.65 9.14205 104.849 8.38068 103.201 8.02273L101.713 7.70455C100.826 7.50568 100.474 7.19886 100.48 6.69318C100.474 6.10227 101.127 5.69318 101.985 5.69318C102.934 5.69318 103.434 6.21023 103.593 6.78409L105.468 6.57955ZM114.249 6.57955C113.965 5.10227 112.784 4.15909 110.738 4.15909C108.636 4.15909 107.204 5.19318 107.21 6.80682C107.204 8.07955 107.988 8.92045 109.664 9.26705L111.153 9.57955C111.954 9.75568 112.329 10.0795 112.329 10.5739C112.329 11.1705 111.681 11.6193 110.704 11.6193C109.761 11.6193 109.147 11.2102 108.971 10.4261L106.965 10.6193C107.221 12.2216 108.568 13.1705 110.71 13.1705C112.892 13.1705 114.431 12.0398 114.437 10.3864C114.431 9.14205 113.63 8.38068 111.982 8.02273L110.494 7.70455C109.607 7.50568 109.255 7.19886 109.261 6.69318C109.255 6.10227 109.909 5.69318 110.767 5.69318C111.715 5.69318 112.215 6.21023 112.374 6.78409L114.249 6.57955ZM116.133 13H118.19V4.27273H116.133V13ZM117.167 3.03409C117.82 3.03409 118.355 2.53409 118.355 1.92045C118.355 1.30114 117.82 0.801136 117.167 0.801136C116.508 0.801136 115.974 1.30114 115.974 1.92045C115.974 2.53409 116.508 3.03409 117.167 3.03409ZM127.203 6.57955C126.919 5.10227 125.737 4.15909 123.691 4.15909C121.589 4.15909 120.157 5.19318 120.163 6.80682C120.157 8.07955 120.941 8.92045 122.617 9.26705L124.106 9.57955C124.907 9.75568 125.282 10.0795 125.282 10.5739C125.282 11.1705 124.634 11.6193 123.657 11.6193C122.714 11.6193 122.1 11.2102 121.924 10.4261L119.919 10.6193C120.174 12.2216 121.521 13.1705 123.663 13.1705C125.845 13.1705 127.384 12.0398 127.39 10.3864C127.384 9.14205 126.583 8.38068 124.936 8.02273L123.447 7.70455C122.561 7.50568 122.208 7.19886 122.214 6.69318C122.208 6.10227 122.862 5.69318 123.72 5.69318C124.669 5.69318 125.169 6.21023 125.328 6.78409L127.203 6.57955ZM133.444 4.27273H131.722V2.18182H129.666V4.27273H128.427V5.86364H129.666V10.7159C129.654 12.358 130.847 13.1648 132.393 13.1193C132.978 13.1023 133.382 12.9886 133.603 12.9148L133.257 11.3068C133.143 11.3352 132.91 11.3864 132.654 11.3864C132.137 11.3864 131.722 11.2045 131.722 10.375V5.86364H133.444V4.27273ZM136.312 13.0909C136.874 13.0909 137.335 12.6307 137.335 12.0682C137.335 11.5057 136.874 11.0455 136.312 11.0455C135.749 11.0455 135.289 11.5057 135.289 12.0682C135.289 12.6307 135.749 13.0909 136.312 13.0909ZM142.309 13.2045C143.832 13.2045 144.627 12.3864 144.9 11.8182H144.968V13H146.309V7.25C146.309 4.47727 144.195 4.15909 143.082 4.15909C141.764 4.15909 140.264 4.61364 139.582 6.20455L140.855 6.65909C141.15 6.02273 141.849 5.34091 143.127 5.34091C144.36 5.34091 144.968 5.99432 144.968 7.11364V7.15909C144.968 7.80682 144.309 7.75 142.718 7.95455C141.099 8.16477 139.332 8.52273 139.332 10.5227C139.332 12.2273 140.65 13.2045 142.309 13.2045ZM142.514 12C141.445 12 140.673 11.5227 140.673 10.5909C140.673 9.56818 141.605 9.25 142.65 9.11364C143.218 9.04545 144.741 8.88636 144.968 8.61364V9.84091C144.968 10.9318 144.105 12 142.514 12ZM148.757 13H150.097V4.27273H148.757V13ZM149.438 2.81818C149.961 2.81818 150.393 2.40909 150.393 1.90909C150.393 1.40909 149.961 1 149.438 1C148.916 1 148.484 1.40909 148.484 1.90909C148.484 2.40909 148.916 2.81818 149.438 2.81818Z" fill="#202124"/>
<path d="M32.8631 27V19.7273H33.7012V22.4119H33.7722C33.8337 22.3172 33.919 22.1965 34.0279 22.0497C34.1391 21.9006 34.2978 21.768 34.5037 21.652C34.7121 21.5336 34.9938 21.4744 35.3489 21.4744C35.8082 21.4744 36.213 21.5893 36.5634 21.8189C36.9138 22.0485 37.1872 22.3741 37.3837 22.7955C37.5802 23.2169 37.6784 23.714 37.6784 24.2869C37.6784 24.8646 37.5802 25.3653 37.3837 25.7891C37.1872 26.2105 36.915 26.5372 36.5669 26.7692C36.2189 26.9988 35.8176 27.1136 35.3631 27.1136C35.0127 27.1136 34.7322 27.0556 34.5215 26.9396C34.3108 26.8213 34.1486 26.6875 34.035 26.5384C33.9213 26.3868 33.8337 26.2614 33.7722 26.1619H33.6728V27H32.8631ZM33.687 24.2727C33.687 24.6847 33.7473 25.0481 33.8681 25.3629C33.9888 25.6754 34.1652 25.9205 34.3972 26.098C34.6292 26.2732 34.9133 26.3608 35.2495 26.3608C35.5998 26.3608 35.8922 26.2685 36.1266 26.0838C36.3633 25.8968 36.5409 25.6458 36.6593 25.331C36.78 25.0137 36.8404 24.661 36.8404 24.2727C36.8404 23.8892 36.7812 23.5436 36.6628 23.2358C36.5468 22.9257 36.3704 22.6806 36.1337 22.5007C35.8993 22.3184 35.6046 22.2273 35.2495 22.2273C34.9086 22.2273 34.6221 22.3137 34.3901 22.4865C34.1581 22.657 33.9829 22.8961 33.8645 23.2038C33.7462 23.5092 33.687 23.8655 33.687 24.2727ZM39.3049 29.0312C39.1628 29.0312 39.0362 29.0194 38.9249 28.9957C38.8136 28.9744 38.7367 28.9531 38.6941 28.9318L38.9071 28.1932C39.2125 28.2713 39.467 28.2689 39.6706 28.1861C39.8742 28.1056 40.0506 27.8617 40.1998 27.4545L40.356 27.0284L38.339 21.5455H39.248L40.7537 25.892H40.8105L42.3162 21.5455L43.2324 21.5597L40.91 27.7955C40.8058 28.0724 40.6768 28.3021 40.5229 28.4844C40.369 28.669 40.1903 28.8063 39.9867 28.8963C39.7855 28.9863 39.5582 29.0312 39.3049 29.0312ZM47.0188 27V19.7273H48.5565V22.9339H48.6523L51.2695 19.7273H53.1126L50.4137 22.9837L53.1445 27H51.305L49.3129 24.0099L48.5565 24.9332V27H47.0188ZM55.949 27.1065C55.3974 27.1065 54.9204 26.9893 54.5179 26.755C54.1178 26.5182 53.8089 26.1892 53.5911 25.7678C53.3733 25.344 53.2644 24.8527 53.2644 24.294C53.2644 23.7306 53.3733 23.2382 53.5911 22.8168C53.8089 22.393 54.1178 22.0639 54.5179 21.8295C54.9204 21.5928 55.3974 21.4744 55.949 21.4744C56.5007 21.4744 56.9765 21.5928 57.3766 21.8295C57.7791 22.0639 58.0892 22.393 58.307 22.8168C58.5248 23.2382 58.6337 23.7306 58.6337 24.294C58.6337 24.8527 58.5248 25.344 58.307 25.7678C58.0892 26.1892 57.7791 26.5182 57.3766 26.755C56.9765 26.9893 56.5007 27.1065 55.949 27.1065ZM55.9561 25.9347C56.2071 25.9347 56.4166 25.8636 56.5847 25.7216C56.7528 25.5772 56.8794 25.3807 56.9647 25.1321C57.0523 24.8835 57.0961 24.6006 57.0961 24.2834C57.0961 23.9661 57.0523 23.6832 56.9647 23.4347C56.8794 23.1861 56.7528 22.9896 56.5847 22.8452C56.4166 22.7008 56.2071 22.6286 55.9561 22.6286C55.7028 22.6286 55.4898 22.7008 55.3169 22.8452C55.1465 22.9896 55.0175 23.1861 54.9299 23.4347C54.8446 23.6832 54.802 23.9661 54.802 24.2834C54.802 24.6006 54.8446 24.8835 54.9299 25.1321C55.0175 25.3807 55.1465 25.5772 55.3169 25.7216C55.4898 25.8636 55.7028 25.9347 55.9561 25.9347ZM59.6174 27V21.5455H61.084V22.4972H61.1408C61.2402 22.1586 61.4071 21.9029 61.6415 21.7301C61.8759 21.5549 62.1458 21.4673 62.4512 21.4673C62.5269 21.4673 62.6086 21.4721 62.6962 21.4815C62.7838 21.491 62.8607 21.504 62.927 21.5206V22.8629C62.856 22.8416 62.7578 22.8227 62.6323 22.8061C62.5068 22.7895 62.392 22.7812 62.2878 22.7812C62.0653 22.7812 61.8664 22.8298 61.6912 22.9268C61.5184 23.0215 61.3811 23.1541 61.2793 23.3246C61.1799 23.495 61.1301 23.6915 61.1301 23.9141V27H59.6174ZM65.9411 27.1065C65.38 27.1065 64.897 26.9929 64.4922 26.7656C64.0897 26.536 63.7796 26.2116 63.5618 25.7926C63.344 25.3712 63.2351 24.8729 63.2351 24.2976C63.2351 23.7365 63.344 23.2441 63.5618 22.8203C63.7796 22.3965 64.0862 22.0663 64.4815 21.8295C64.8793 21.5928 65.3456 21.4744 65.8807 21.4744C66.2405 21.4744 66.5755 21.5324 66.8857 21.6484C67.1982 21.7621 67.4704 21.9337 67.7024 22.1634C67.9368 22.393 68.1191 22.6818 68.2493 23.0298C68.3795 23.3755 68.4446 23.7803 68.4446 24.2443V24.6598H63.8388V23.7223H67.0206C67.0206 23.5045 66.9732 23.3116 66.8786 23.1435C66.7839 22.9754 66.6525 22.844 66.4844 22.7493C66.3187 22.6522 66.1257 22.6037 65.9055 22.6037C65.6759 22.6037 65.4723 22.657 65.2947 22.7635C65.1196 22.8677 64.9822 23.0085 64.8828 23.1861C64.7834 23.3613 64.7325 23.5566 64.7301 23.772V24.6634C64.7301 24.9332 64.7798 25.1664 64.8793 25.3629C64.9811 25.5594 65.1243 25.7109 65.3089 25.8175C65.4936 25.924 65.7126 25.9773 65.9659 25.9773C66.134 25.9773 66.2879 25.9536 66.4276 25.9062C66.5672 25.8589 66.6868 25.7879 66.7862 25.6932C66.8857 25.5985 66.9614 25.4825 67.0135 25.3452L68.4126 25.4375C68.3416 25.7737 68.196 26.0672 67.9759 26.3182C67.758 26.5668 67.4763 26.7609 67.1307 26.9006C66.7874 27.0379 66.3909 27.1065 65.9411 27.1065ZM70.3161 27.0923C70.0817 27.0923 69.8804 27.0095 69.7124 26.8438C69.5466 26.6757 69.4638 26.4744 69.4638 26.2401C69.4638 26.008 69.5466 25.8092 69.7124 25.6435C69.8804 25.4777 70.0817 25.3949 70.3161 25.3949C70.5433 25.3949 70.7422 25.4777 70.9126 25.6435C71.0831 25.8092 71.1683 26.008 71.1683 26.2401C71.1683 26.3963 71.1281 26.5395 71.0476 26.6697C70.9695 26.7976 70.8665 26.9006 70.7386 26.9787C70.6108 27.0545 70.4699 27.0923 70.3161 27.0923ZM73.9657 27.103C73.6177 27.103 73.3076 27.0426 73.0353 26.9219C72.7631 26.7988 72.5476 26.6177 72.389 26.3786C72.2328 26.1371 72.1547 25.8364 72.1547 25.4766C72.1547 25.1735 72.2103 24.919 72.3216 24.7131C72.4328 24.5071 72.5843 24.3414 72.7761 24.2159C72.9679 24.0904 73.1857 23.9957 73.4295 23.9318C73.6757 23.8679 73.9338 23.8229 74.2037 23.7969C74.5209 23.7637 74.7766 23.733 74.9707 23.7045C75.1648 23.6738 75.3057 23.6288 75.3933 23.5696C75.4809 23.5104 75.5247 23.4228 75.5247 23.3068V23.2855C75.5247 23.0606 75.4537 22.8866 75.3116 22.7635C75.1719 22.6404 74.9731 22.5788 74.715 22.5788C74.4428 22.5788 74.2261 22.6392 74.0652 22.7599C73.9042 22.8783 73.7976 23.0275 73.7456 23.2074L72.3464 23.0938C72.4174 22.7623 72.5571 22.4759 72.7654 22.2344C72.9738 21.9905 73.2425 21.8035 73.5716 21.6733C73.903 21.5407 74.2865 21.4744 74.7221 21.4744C75.0252 21.4744 75.3152 21.5099 75.5922 21.581C75.8715 21.652 76.1189 21.7621 76.3343 21.9112C76.5521 22.0604 76.7238 22.2521 76.8493 22.4865C76.9747 22.7185 77.0375 22.9967 77.0375 23.321V27H75.6028V26.2436H75.5602C75.4726 26.4141 75.3554 26.5644 75.2086 26.6946C75.0618 26.8224 74.8855 26.9231 74.6795 26.9964C74.4735 27.0675 74.2356 27.103 73.9657 27.103ZM74.399 26.0589C74.6215 26.0589 74.818 26.0152 74.9885 25.9276C75.1589 25.8376 75.2927 25.7169 75.3897 25.5653C75.4868 25.4138 75.5353 25.2422 75.5353 25.0504V24.4716C75.488 24.5024 75.4229 24.5308 75.34 24.5568C75.2595 24.5805 75.1684 24.603 75.0666 24.6243C74.9648 24.6432 74.863 24.661 74.7612 24.6776C74.6594 24.6918 74.5671 24.7048 74.4842 24.7166C74.3066 24.7427 74.1516 24.7841 74.019 24.8409C73.8864 24.8977 73.7834 24.9747 73.71 25.0717C73.6367 25.1664 73.6 25.2848 73.6 25.4268C73.6 25.6328 73.6745 25.7902 73.8237 25.8991C73.9752 26.0057 74.167 26.0589 74.399 26.0589ZM78.2111 27V21.5455H79.7239V27H78.2111ZM78.9746 20.8423C78.7497 20.8423 78.5568 20.7678 78.3958 20.6186C78.2348 20.4671 78.1543 20.286 78.1543 20.0753C78.1543 19.867 78.2348 19.6882 78.3958 19.5391C78.5568 19.3875 78.7485 19.3118 78.9711 19.3118C79.1983 19.3118 79.3913 19.3875 79.5499 19.5391C79.7109 19.6882 79.7914 19.867 79.7914 20.0753C79.7914 20.286 79.7109 20.4671 79.5499 20.6186C79.3913 20.7678 79.1995 20.8423 78.9746 20.8423Z" fill="#9AA0A6"/>
<path d="M4.40487 18.6348L6.34814 20.578L2.02304 24.9031C1.91587 25.0103 1.74166 25.0103 1.63449 24.9031L0.0803103 23.349C-0.0268555 23.2418 -0.0268555 23.0676 0.0803103 22.9604L4.40487 18.6348Z" fill="#202124"/>
<circle r="8.7931" transform="matrix(-1 0 0 1 13.1888 11.7931)" fill="#FFDA2D"/>
</svg>

<svg width="152" height="30" fill="none" xmlns="http://www.w3.org/2000/svg"><path d="M39.454 4.563h2.028c-.04-1.966-1.715-3.358-4.193-3.358-2.443 0-4.278 1.375-4.273 3.431 0 1.67 1.188 2.631 3.103 3.125l1.324.341c1.255.318 2.085.71 2.09 1.614-.005.994-.948 1.659-2.323 1.659-1.319 0-2.341-.59-2.426-1.813H32.71c.085 2.313 1.806 3.614 4.517 3.614 2.79 0 4.409-1.392 4.415-3.443-.006-2.017-1.67-2.938-3.42-3.352l-1.092-.273c-.954-.227-1.989-.63-1.977-1.602.006-.875.79-1.517 2.108-1.517 1.255 0 2.085.585 2.193 1.574Zm7.84 8.608c2.034 0 3.431-.995 3.795-2.512l-1.92-.216c-.279.739-.96 1.125-1.847 1.125-1.33 0-2.21-.875-2.227-2.37h6.08v-.63c0-3.062-1.842-4.409-3.99-4.409-2.5 0-4.13 1.835-4.13 4.529 0 2.738 1.608 4.482 4.239 4.482ZM45.1 7.813c.063-1.114.887-2.052 2.114-2.052 1.182 0 1.977.864 1.989 2.051H45.1Zm10.326 5.363c1.369 0 2.187-.642 2.562-1.375h.068V13h1.978V7.16c0-2.308-1.881-3-3.546-3-1.835 0-3.244.817-3.699 2.408l1.92.273c.205-.597.785-1.108 1.79-1.108.955 0 1.478.489 1.478 1.347v.034c0 .59-.62.619-2.16.784-1.693.182-3.312.687-3.312 2.653 0 1.716 1.256 2.625 2.92 2.625Zm.534-1.511c-.858 0-1.472-.392-1.472-1.148 0-.79.688-1.12 1.608-1.25.54-.074 1.62-.21 1.886-.426v1.028c0 .972-.784 1.796-2.022 1.796ZM62.102 13h2.057V7.87c0-1.109.835-1.893 1.965-1.893.347 0 .779.063.955.12V4.205a4.938 4.938 0 0 0-.739-.057c-1 0-1.835.568-2.153 1.58h-.09V4.272h-1.995V13Zm9.79.17c2.194 0 3.592-1.3 3.74-3.153h-1.966c-.176.938-.853 1.477-1.756 1.477-1.284 0-2.114-1.073-2.114-2.858 0-1.761.847-2.818 2.114-2.818.989 0 1.597.637 1.756 1.477h1.966c-.142-1.892-1.62-3.136-3.75-3.136-2.557 0-4.17 1.847-4.17 4.511 0 2.643 1.573 4.5 4.18 4.5Zm7.485-5.284c0-1.261.784-1.988 1.887-1.988 1.08 0 1.716.687 1.716 1.863V13h2.056V7.443c0-2.108-1.193-3.284-3.005-3.284-1.341 0-2.194.608-2.597 1.597h-.102V1.364H77.32V13h2.056V7.886ZM88.718 13l.96-2.87h4.375L95.02 13h2.25L93.167 1.364h-2.602L86.468 13h2.25Zm1.529-4.563L91.82 3.75h.091l1.574 4.688h-3.238Zm15.221-1.857c-.284-1.478-1.466-2.42-3.511-2.42-2.102 0-3.534 1.033-3.529 2.647-.005 1.273.779 2.113 2.455 2.46l1.489.313c.801.176 1.176.5 1.176.994 0 .597-.648 1.045-1.625 1.045-.943 0-1.557-.409-1.733-1.193l-2.006.193c.256 1.603 1.602 2.552 3.744 2.552 2.182 0 3.722-1.131 3.728-2.785-.006-1.244-.807-2.005-2.455-2.363l-1.488-.318c-.887-.2-1.239-.506-1.233-1.012-.006-.59.647-1 1.505-1 .949 0 1.449.517 1.608 1.091l1.875-.204Zm8.781 0c-.284-1.478-1.465-2.42-3.511-2.42-2.102 0-3.534 1.033-3.528 2.647-.006 1.273.778 2.113 2.454 2.46l1.489.313c.801.176 1.176.5 1.176.994 0 .597-.648 1.045-1.625 1.045-.943 0-1.557-.409-1.733-1.193l-2.006.193c.256 1.603 1.603 2.552 3.745 2.552 2.182 0 3.721-1.131 3.727-2.785-.006-1.244-.807-2.005-2.455-2.363l-1.488-.318c-.887-.2-1.239-.506-1.233-1.012-.006-.59.648-1 1.506-1 .948 0 1.448.517 1.607 1.091l1.875-.204Zm1.884 6.42h2.057V4.273h-2.057V13Zm1.034-9.966c.653 0 1.188-.5 1.188-1.114 0-.619-.535-1.119-1.188-1.119-.659 0-1.193.5-1.193 1.12 0 .613.534 1.113 1.193 1.113Zm10.036 3.546c-.284-1.478-1.466-2.42-3.512-2.42-2.102 0-3.534 1.033-3.528 2.647-.006 1.273.778 2.113 2.454 2.46l1.489.313c.801.176 1.176.5 1.176.994 0 .597-.648 1.045-1.625 1.045-.943 0-1.557-.409-1.733-1.193l-2.005.193c.255 1.603 1.602 2.552 3.744 2.552 2.182 0 3.721-1.131 3.727-2.785-.006-1.244-.807-2.005-2.454-2.363l-1.489-.318c-.886-.2-1.239-.506-1.233-1.012-.006-.59.648-1 1.506-1 .949 0 1.449.517 1.608 1.091l1.875-.204Zm6.241-2.307h-1.722V2.182h-2.056v2.09h-1.239v1.592h1.239v4.852c-.012 1.642 1.181 2.449 2.727 2.403a4.13 4.13 0 0 0 1.21-.204l-.346-1.608a2.59 2.59 0 0 1-.603.08c-.517 0-.932-.183-.932-1.012V5.864h1.722V4.273Zm2.868 8.818c.562 0 1.023-.46 1.023-1.023 0-.562-.461-1.022-1.023-1.022-.563 0-1.023.46-1.023 1.022 0 .563.46 1.023 1.023 1.023Zm5.997.114c1.523 0 2.318-.819 2.591-1.387h.068V13h1.341V7.25c0-2.773-2.114-3.09-3.227-3.09-1.318 0-2.818.454-3.5 2.045l1.273.454c.295-.636.994-1.318 2.272-1.318 1.233 0 1.841.653 1.841 1.773v.045c0 .648-.659.591-2.25.796-1.619.21-3.386.568-3.386 2.568 0 1.704 1.318 2.681 2.977 2.681Zm.205-1.205c-1.069 0-1.841-.477-1.841-1.41 0-1.022.932-1.34 1.977-1.476.568-.069 2.091-.228 2.318-.5V9.84c0 1.09-.863 2.159-2.454 2.159Zm6.243 1h1.34V4.273h-1.34V13Zm.681-10.182c.523 0 .955-.409.955-.909S149.961 1 149.438 1c-.522 0-.954.41-.954.91s.432.908.954.908Z" fill="#202124"/><path d="M32.863 27v-7.273h.838v2.685h.071a7.74 7.74 0 0 1 .256-.362c.111-.15.27-.282.476-.398.208-.118.49-.178.845-.178.46 0 .864.115 1.214.345.35.23.624.555.82.977.197.42.295.918.295 1.49 0 .579-.098 1.08-.294 1.503a2.325 2.325 0 0 1-.817.98c-.348.23-.75.345-1.204.345-.35 0-.63-.058-.841-.174a1.559 1.559 0 0 1-.487-.402 5.339 5.339 0 0 1-.263-.376h-.1V27h-.809Zm.824-2.727c0 .412.06.775.181 1.09.12.312.297.558.53.735.231.175.515.263.851.263.35 0 .643-.093.878-.277.236-.187.414-.438.532-.753.121-.317.181-.67.181-1.058 0-.384-.059-.73-.177-1.037a1.603 1.603 0 0 0-.53-.735c-.234-.183-.528-.274-.884-.274-.34 0-.627.087-.859.26-.232.17-.407.41-.526.717a2.95 2.95 0 0 0-.177 1.069Zm5.618 4.758a1.834 1.834 0 0 1-.61-.1l.212-.738c.306.078.56.076.764-.007.203-.08.38-.324.529-.732l.156-.426-2.017-5.482h.909l1.506 4.346h.056l1.506-4.346.916.014-2.322 6.236a2.331 2.331 0 0 1-.387.688 1.466 1.466 0 0 1-.536.412c-.202.09-.429.135-.682.135ZM47.019 27v-7.273h1.538v3.207h.095l2.617-3.207h1.844l-2.7 3.257L53.146 27h-1.84l-1.992-2.99-.757.923V27H47.02Zm8.93.107c-.552 0-1.029-.118-1.431-.352a2.406 2.406 0 0 1-.927-.987c-.218-.424-.327-.915-.327-1.474 0-.563.11-1.056.327-1.477.218-.424.527-.753.927-.988.402-.236.88-.355 1.431-.355.552 0 1.028.119 1.428.355.402.235.712.564.93.988.218.421.327.914.327 1.477 0 .559-.11 1.05-.327 1.474-.218.421-.528.75-.93.987-.4.234-.876.352-1.428.352Zm.007-1.172a.94.94 0 0 0 .629-.213c.168-.145.294-.341.38-.59.087-.248.131-.531.131-.849 0-.317-.044-.6-.131-.848a1.322 1.322 0 0 0-.38-.59.93.93 0 0 0-.629-.216.963.963 0 0 0-.64.216c-.17.145-.299.341-.386.59a2.607 2.607 0 0 0-.128.848c0 .318.043.6.128.85.087.248.217.444.387.589a.974.974 0 0 0 .64.213ZM59.617 27v-5.454h1.467v.951h.057c.1-.338.266-.594.5-.767a1.32 1.32 0 0 1 .81-.263 2.307 2.307 0 0 1 .476.054v1.342a2.644 2.644 0 0 0-.64-.082c-.222 0-.42.049-.596.146a1.072 1.072 0 0 0-.56.987V27h-1.514Zm6.324.107c-.561 0-1.044-.114-1.449-.341a2.335 2.335 0 0 1-.93-.973c-.218-.422-.327-.92-.327-1.495 0-.561.109-1.054.327-1.478.218-.424.524-.754.92-.99.397-.237.864-.356 1.399-.356.36 0 .695.058 1.005.174a2.244 2.244 0 0 1 1.363 1.382c.13.345.196.75.196 1.214v.416h-4.606v-.938h3.182c0-.218-.048-.41-.142-.579a1.017 1.017 0 0 0-.395-.394 1.124 1.124 0 0 0-.578-.145c-.23 0-.434.053-.611.16a1.12 1.12 0 0 0-.412.422c-.1.175-.15.37-.153.586v.891c0 .27.05.503.15.7.101.196.244.348.429.454.185.107.404.16.657.16.168 0 .322-.023.462-.07a.926.926 0 0 0 .586-.561l1.399.091a1.91 1.91 0 0 1-.437.881c-.218.249-.5.443-.845.583-.344.137-.74.206-1.19.206Zm4.375-.015a.83.83 0 0 1-.604-.248.83.83 0 0 1-.248-.604c0-.232.083-.43.248-.596a.83.83 0 0 1 .604-.25c.227 0 .426.084.597.25.17.165.255.364.255.596 0 .156-.04.3-.12.43a.917.917 0 0 1-.31.309.813.813 0 0 1-.422.113Zm3.65.011c-.348 0-.658-.06-.93-.181a1.498 1.498 0 0 1-.647-.543c-.156-.242-.234-.543-.234-.902 0-.303.055-.558.167-.764a1.35 1.35 0 0 1 .454-.497c.192-.126.41-.22.654-.284.246-.064.504-.11.774-.135.317-.033.573-.064.767-.093.194-.03.335-.075.422-.134a.297.297 0 0 0 .132-.263v-.021c0-.225-.071-.4-.213-.523-.14-.123-.339-.184-.597-.184-.272 0-.489.06-.65.18a.833.833 0 0 0-.32.448l-1.399-.113c.071-.332.211-.618.42-.86.208-.244.477-.43.806-.56a3.082 3.082 0 0 1 1.15-.2c.303 0 .593.036.87.107.28.071.527.181.742.33.218.15.39.341.515.575.126.232.188.51.188.835V27h-1.434v-.756h-.043a1.54 1.54 0 0 1-.351.45 1.626 1.626 0 0 1-.53.302 2.185 2.185 0 0 1-.713.107Zm.433-1.044c.222 0 .419-.044.59-.131.17-.09.304-.211.4-.363a.933.933 0 0 0 .146-.515v-.578a.806.806 0 0 1-.195.085c-.08.024-.172.046-.273.067a14.14 14.14 0 0 1-.306.054l-.277.039a1.875 1.875 0 0 0-.465.124.744.744 0 0 0-.309.23.563.563 0 0 0-.11.356c0 .206.075.363.224.472.151.107.343.16.575.16Zm3.812.941v-5.454h1.513V27H78.21Zm.764-6.158a.822.822 0 0 1-.58-.223.72.72 0 0 1-.24-.544c0-.208.08-.387.24-.536a.81.81 0 0 1 .576-.227c.227 0 .42.075.579.227a.71.71 0 0 1 .241.536.72.72 0 0 1-.241.544.81.81 0 0 1-.575.223Z" fill="#9AA0A6"/><path d="m4.405 18.635 1.943 1.943-4.325 4.325a.275.275 0 0 1-.389 0L.08 23.35a.275.275 0 0 1 0-.389l4.325-4.325Z" fill="#202124"/><circle r="8.793" transform="matrix(-1 0 0 1 13.189 11.793)" fill="#FFDA2D"/></svg>
